!!!COM: Paul Hindemith
!!!OTL: [T646_Hin-w42p8m39-48]
**kern	**dynam	**kern	**dynam	**kern	**dynam	**kern	**dynam	**kern	**dynam
*grp:A	*grp:A	*grp:A	*grp:A	*grp:B	*grp:B	*grp:B	*grp:B	*grp:B	*grp:B
*part5	*part5	*part4	*part4	*part3	*part3	*part2	*part2	*part1	*part1
*staff5	*	*staff4	*	*staff3	*	*staff2	*	*staff1	*
*I"	*	*I"Strings	*	*I"	*	*I"Trumpet in C	*	*I"Flute	*
*I'	*	*I'	*	*I'	*	*I'C Tpt.	*	*I'Fl.	*
*ICstr	*	*ICstr	*	*ICstr	*	*ICbras	*	*ICww	*
*	*	*	*	*	*	*Itromp	*	*	*
*clefF4	*	*clefG2	*	*clefG2	*	*clefG2	*	*clefG2	*
*k[]	*	*k[]	*	*k[]	*	*k[]	*	*k[]	*
*M2/4	*	*M2/4	*	*M2/4	*	*M2/4	*	*M2/4	*
!!LO:REH:t=3
=39	=39	=39	=39	=39	=39	=39	=39	=39	=39
*^	*	*	*	*	*	*	*	*	*
!LO:TX:a:t=pizz.	!	!	!LO:TX:a:t=pizz.	!	!	!	!	!	!LO:TX:t=[[quarter]=96]	!
16ryy	16ryy	4ryy	16ryy	4ryy	4.a-X)j	p	2r	.	2r	.
16ryy	16ryy	.	16ryy	.	.	.	.	.	.	.
8ryy	8ryy	.	8ryy	.	.	.	.	.	.	.
8ryy	8ryy	.	8ryy	.	.	.	.	.	.	.
16ryy	16ryy	.	16ryy	.	(</8b-X	.	.	.	.	.
16ryy	16ryy	.	16ryy	.	.	.	.	.	.	.
=40	=40	=40	=40	=40	=40	=40	=40	=40	=40	=40
8ryy	8ryy	.	8ryy	.	8a-XL	.	2r	.	2r	.
8ryy	8ryy	.	8ryy	.	8g-XJ	.	.	.	.	.
16ryy	16ryy	.	16ryy	.	[4f	.	.	.	.	.
16ryy	16ryy	.	16ryy	.	.	.	.	.	.	.
8ryy	8ryy	.	8ryy	.	.	.	.	.	.	.
=41	=41	=41	=41	=41	=41	=41	=41	=41	=41	=41
8ryy	8ryy	4ryy	8ryy	4ryy	/8fL])	.	2r	.	2r	.
8ryy	8ryy	.	8ryy	.	(8cc	<	.	.	.	.
16ryy	16ryy	.	16ryy	.	8ee-X	.	.	.	.	.
16ryy	16ryy	.	16ryy	.	.	.	.	.	.	.
8ryy	8ryy	4ryy	8ryy	4ryy	8ccJ)	[	.	.	.	.
=42	=42	=42	=42	=42	=42	=42	=42	=42	=42	=42
8ryy	8ryy	4ryy	8ryy	4ryy	4.b-X	>	2r	.	2r	.
16ryy	16ryy	.	16ryy	.	.	.	.	.	.	.
16ryy	16ryy	.	16ryy	.	.	.	.	.	.	.
8ryy	8ryy	.	8ryy	.	.	.	.	.	.	.
8ryy	8ryy	.	8ryy	.	(8cc-X	.	.	.	.	.
=43	=43	=43	=43	=43	=43	=43	=43	=43	=43	=43
16ryy	16ryy	.	16ryy	.	8a-XL	.	4r	.	4r	.
16ryy	16ryy	.	16ryy	.	.	.	.	.	.	.
8ryy	8ryy	.	8ryy	.	8g-X	.	.	.	.	.
8ryy	8ryy	4ryy	8ryy	4ryy	8fJ)	]	8r	.	8r	.
*v	*v	*	*	*	*	*	*	*	*	*
8ryy	.	8ryy	.	8r	.	(8gn	p	(8ggn	p
=44	=44	=44	=44	=44	=44	=44	=44	=44	=44
*^	*	*	*	*	*	*	*	*	*
!LO:TX:a:t=arco	!	!	!LO:TX:a:t=arco	!	!	!	!	!	!	!
*	*	*	*	*	*grp:A	*grp:A	*	*	*	*
16ryy	16ryy	4ryy	16ryy	4ryy	16ryy	4ryy	4.a-X)	.	4.aa-X)	.
16ryy	16ryy	.	16ryy	.	16ryy	.	.	.	.	.
8ryy	8ryy	.	8ryy	.	8ryy	.	.	.	.	.
8ryy	8ryy	.	8ryy	.	8ryy	.	.	.	.	.
16ryy	16ryy	.	16ryy	.	16ryy	.	(8b-X	.	(8bb-X	.
16ryy	16ryy	.	16ryy	.	16ryy	.	.	.	.	.
=45	=45	=45	=45	=45	=45	=45	=45	=45	=45	=45
8ryy	8ryy	.	8ryy	.	8ryy	.	8a-XL	.	8aa-XL	.
8ryy	8ryy	.	8ryy	.	8ryy	.	8g-XJ)	.	8gg-XJ	.
16ryy	16ryy	.	16ryy	.	16ryy	.	[4f	.	[4ff	.
16ryy	16ryy	.	16ryy	.	16ryy	.	.	.	.	.
8ryy	8ryy	.	8ryy	.	8ryy	.	.	.	.	.
=46	=46	=46	=46	=46	=46	=46	=46	=46	=46	=46
8ryy	8ryy	.	8ryy	.	8ryy	.	8fL]	.	8ffL])	.
8ryy	8ryy	4ryy	8ryy	4ryy	8ryy	4ryy	(8cc	<	(8ccc	<
16ryy	16ryy	.	16ryy	.	16ryy	.	8ee-X	.	8eee-X	.
16ryy	16ryy	.	16ryy	.	16ryy	.	.	.	.	.
8ryy	8ryy	4ryy	8ryy	4ryy	8ryy	4ryy	8ccJ	[[	8cccJ	[[
=47	=47	=47	=47	=47	=47	=47	=47	=47	=47	=47
8ryy	8ryy	.	8ryy	.	8ryy	.	4.b-X)	>	4.bb-X)	>
16ryy	16ryy	4ryy	16ryy	4ryy	16ryy	4ryy	.	.	.	.
16ryy	16ryy	.	16ryy	.	16ryy	.	.	.	.	.
8ryy	8ryy	.	8ryy	.	8ryy	.	.	.	.	.
8ryy	8ryy	4ryy	8ryy	4ryy	8ryy	4ryy	(8cc-X	]]	(8ccc-X	]]
=48	=48	=48	=48	=48	=48	=48	=48	=48	=48	=48
16ryy	16ryy	.	16ryy	.	16ryy	.	8a-XL	.	8aa-XL	.
16ryy	16ryy	.	16ryy	.	16ryy	.	.	.	.	.
8ryy	8ryy	.	8ryy	.	8ryy	.	8g-X	.	8gg-X	.
*v	*v	*	*	*	*	*	*	*	*	*
4ryy	.	8ryy	.	8ryy	.	8fJ)	.	8ffJ)	.
.	.	8ryy	4ryy	8ryy	4ryy	8r	.	8r	.
=	=	=	=	=	=	=	=	=	=
*-	*-	*-	*-	*-	*-	*-	*-	*-	*-
!!!system-decoration: s1,s2[(s3,s4,s5)]
!!!RDF**kern: > = above
!!!RDF**kern: < = below
!!!EED: Claudio de Freitas
!!!EEV: 2021/09/02
!!!EED2: Daniel Wright
!!!EEV2: 2022/02/18
